X:653
T:Reel 653
M:4/4
K:Dmaj
L:1/8
F|ABAF GAGF|GBAF GEEd|FAAF GAdB|Adce dBAG|FGAF GFED|EFdA BEEG|FGAB defg|afge fdd|e|fdAd fgaf|gfed cdeg|fdAd fdad| (3Bcd eg fddg|fdAd fdad|cdef gfeg|fdec dBAG|FAEG FDD|
